Suru++-Ubuntu/apps/symbolic/cdcat-symbolic.svg

<svg width="16" height="16" version="1.1" xmlns="http://www.w3.org/2000/svg">
 <g transform="matrix(.18559771 0 0 .18559771 -6.0911001 11.556975)" style="fill:#808080">
  <path transform="matrix(5.3879975,0,0,5.3879975,32.818832,-62.268953)" d="m4.3222656 1.1992188c-2.3791475 0-4.3222656 1.7872486-4.3222656 4 0 1.1516386 0.52113678 2.2027296 1.3574219 2.9335937l6.5351562 5.8671875 6.7499999-5.8671875c0.836786-0.729584 1.357422-1.781619 1.357422-2.9335937 0-2.2127522-1.943116-3.9980469-4.322266-3.9980469-1.566364 0-2.9241507 0.7684663-3.677734 1.9316406-0.7535837-1.1631743-2.1113691-1.9316406-3.6777344-1.9316406v-0.0019531zm0.5253906 0.9160156c1.3422653 0 2.5065754 0.6594912 3.1523438 1.65625 0.6457681-0.9967588 1.8100795-1.65625 3.152344-1.65625 2.038764 0 3.703125 1.5315608 3.703125 3.4277344 0 0.9871616-0.445043 1.8884694-1.16211 2.5136718l-5.7851559 5.0273434-5.6015625-5.0273434c-0.7166377-0.6262993-1.1621094-1.5267983-1.1621094-2.5136718 1e-7 -1.8961729 1.6643624-3.4277344 3.703125-3.4277344z" style="fill:#808080"/>
 </g>
</svg>

<svg xmlns="http://www.w3.org/2000/svg" width="16" height="16" version="1.1">
 <g style="fill:#808080" transform="matrix(0.18559771,0,0,0.18559771,-6.0911001,11.556975)">
  <path d="M 4.3222656 1.1992188 C 1.9431181 1.1992188 0 2.9864674 0 5.1992188 C 0 6.3508574 0.52113678 7.4019484 1.3574219 8.1328125 L 7.8925781 14 L 14.642578 8.1328125 C 15.479364 7.4032285 16 6.3511935 16 5.1992188 C 16 2.9864666 14.056884 1.2011719 11.677734 1.2011719 C 10.11137 1.2011719 8.7535833 1.9696382 8 3.1328125 C 7.2464163 1.9696382 5.8886309 1.2011719 4.3222656 1.2011719 L 4.3222656 1.1992188 z M 4.8476562 2.1152344 C 6.1899215 2.1152344 7.3542316 2.7747256 8 3.7714844 C 8.6457681 2.7747256 9.8100795 2.1152344 11.152344 2.1152344 C 13.191108 2.1152344 14.855469 3.6467952 14.855469 5.5429688 C 14.855469 6.5301304 14.410426 7.4314382 13.693359 8.0566406 L 7.9082031 13.083984 L 2.3066406 8.0566406 C 1.5900029 7.4303413 1.1445312 6.5298423 1.1445312 5.5429688 C 1.1445313 3.6467959 2.8088936 2.1152344 4.8476562 2.1152344 z" transform="matrix(5.3879975,0,0,5.3879975,32.818832,-62.268953)" style="fill:#808080"/>
 </g>
</svg>
